korla/apps/scalable/applications-internet.svg

<!DOCTYPE svg  PUBLIC '-//W3C//DTD SVG 1.1//EN'  'http://www.w3.org/Graphics/SVG/1.1/DTD/svg11.dtd'>
<svg style="clip-rule:evenodd;fill-rule:evenodd;stroke-linejoin:round;stroke-miterlimit:1.41421" version="1.1" viewBox="0 0 48 48" xmlns="http://www.w3.org/2000/svg">
 <g transform="matrix(.104977 0 0 .104977 57.8136 -23.1366)">
  <circle cx="-322.323" cy="449.237" r="209.757" style="fill:url(#_Linear1)"/>
  <g transform="matrix(9.96133,0,0,9.96133,-566.068,216.605)">
   <path d="m18.317 14.439l0.429-0.647-0.643-0.484 0.214 1.131m-3.784-5.658l-0.358 0.889h0.715l0.357-0.808c0.308-0.218 0.615-0.437 0.928-0.647l0.715 0.243c0.475 0.323 0.951 0.646 1.427 0.969l0.715-0.646-0.786-0.323-0.357-0.728-1.357-0.162-0.071-0.404-0.643 0.162-0.286 0.566-0.357-0.728-0.142 0.324 0.071 0.808-0.571 0.485m3.427 18.994l-0.571-1.132-1.071-0.242-0.572-1.535-1.428 0.161-1.213-0.888-1.286 1.131v0.178c-0.389-0.112-0.867-0.127-1.214-0.34l-0.286-0.808v-0.889l-0.856 0.08c0.071-0.566 0.142-1.131 0.214-1.697h-0.5l-0.5 0.647-0.5 0.241-0.714-0.402-0.072-0.89 0.143-0.97 1.072-0.808h0.856l0.143-0.485 1.071 0.242 0.786 0.971 0.143-1.618 1.357-1.131 0.499-1.212 1-0.404 0.571-0.808 1.285-0.244 0.644-0.969h-1.929l1.214-0.566h0.857l1.214-0.405 0.143-0.483-0.429-0.405-0.5-0.162 0.143-0.485-0.357-0.727-0.857 0.323 0.143-0.646-1-0.566-0.785 1.373 0.071 0.485-0.785 0.324-0.5 1.051-0.214-0.97-1.357-0.566-0.215-0.727 1.786-1.052 0.785-0.727 0.072-0.889-0.428-0.242-0.572-0.081-0.356 0.889s-0.598 0.117-0.751 0.155c-1.961 1.807-5.923 5.708-6.844 13.071 0.037 0.171 0.667 1.161 0.667 1.161l1.5 0.889 1.499 0.404 0.644 0.809 0.999 0.727 0.571-0.08 0.429 0.193v0.13l-0.571 1.535-0.429 0.647 0.143 0.324-0.357 1.211 1.285 2.345 1.285 1.132 0.572 0.807-0.072 1.698 0.429 0.969-0.429 1.86s-0.033-0.012 0.021 0.174c0.056 0.186 2.288 1.426 2.43 1.32 0.142-0.107 0.263-0.201 0.263-0.201l-0.143-0.403 0.571-0.566 0.215-0.566 0.928-0.325 0.714-1.778-0.214-0.484 0.499-0.727 1.072-0.243 0.571-1.294-0.143-1.615 0.857-1.213 0.143-1.212c-1.172-0.582-2.335-1.18-3.499-1.779m8.355-21.984l-1.857-0.728-2.141 0.242-2.643 0.728-0.5 0.485 1.643 1.131v0.647l-0.643 0.646 0.857 1.699 0.57-0.324 0.716-1.132c1.103-0.341 2.092-0.727 3.141-1.212l0.857-2.182m-0.785 3.313l-0.072 0.485 0.501 0.323 0.855-0.565-0.427-0.485-0.572 0.324-0.285-0.081m17.683 11.275l-0.535 0.607c-0.328-0.386-0.696-0.711-1.07-1.051l-0.822 0.121-0.75-0.848v1.049l0.643 0.486 0.428 0.484 0.571-0.646c0.144 0.269 0.286 0.539 0.429 0.808v0.808l-0.643 0.727-1.179 0.809-0.892 0.89-0.571-0.648 0.285-0.727-0.57-0.646-0.965-2.061-0.821-0.929-0.215 0.241 0.323 1.173 0.606 0.687c0.346 0.999 0.689 1.956 1.144 2.91 0.705 0 1.369-0.075 2.07-0.163v0.566l-0.857 2.102-0.786 0.888-0.642 1.377v2.262l0.215 0.889-0.357 0.403-0.787 0.486-0.821 0.686 0.679 0.768-0.929 0.81 0.179 0.524-1.393 1.578h-0.928l-0.786 0.485h-0.5v-0.647l-0.213-1.295c-0.277-0.811-0.564-1.617-0.857-2.423 0-0.595 0.035-1.184 0.071-1.779l0.358-0.807-0.501-0.971 0.036-1.334-0.679-0.767 0.34-1.111-0.553-0.627h-0.965l-0.321-0.364-0.964 0.607-0.393-0.446-0.893 0.768c-0.606-0.687-1.213-1.374-1.821-2.061l-0.713-1.698 0.642-0.969-0.357-0.404 0.785-1.86c0.645-0.802 1.318-1.571 2-2.343l1.214-0.324 1.357-0.161 0.928 0.242 1.321 1.333 0.465-0.525 0.641-0.081 1.215 0.404h0.928l0.643-0.565 0.286-0.404-0.644-0.404-1.071-0.08c-0.298-0.413-0.574-0.847-0.927-1.213l-0.358 0.161-0.143 1.052-0.643-0.728-0.141-0.809-0.714-0.564h-0.287l0.715 0.807-0.286 0.728-0.571 0.161 0.357-0.727-0.644-0.323-0.57-0.646-1.072 0.241-0.142 0.323-0.643 0.405-0.357 0.889-0.892 0.444-0.394-0.444h-0.427v-1.455l0.928-0.486h0.714l-0.144-0.565-0.57-0.566 0.963-0.202 0.536-0.606 0.428-0.728h0.786l-0.215-0.565 0.501-0.323v0.646l1.071 0.242 1.07-0.888 0.072-0.405 0.928-0.646c-0.336 0.042-0.672 0.072-1 0.162v-0.729l0.357-0.808h-0.357l-0.784 0.727-0.215 0.405 0.215 0.566-0.358 0.969-0.571-0.323-0.499-0.565-0.786 0.565-0.286-1.293 1.356-0.889v-0.485l0.858-0.566 1.356-0.324 0.929 0.324 1.713 0.323-0.427 0.485h-0.929l0.929 0.97 0.713-0.808 0.217-0.356s2.738 2.455 4.303 5.139c1.565 2.685 2.299 5.85 2.299 6.493v-1e-3zm-26.11-13.62l0.357-0.322 0.715-0.162c0.489-0.238 0.98-0.398 1.499-0.566l-0.285-0.485-0.922 0.132-0.435 0.434-0.719 0.105-0.638 0.299-0.31 0.151-0.19 0.253 0.928 0.161m-0.714 2.668l0.714 0.485h0.572v-0.566l-0.714-0.323-0.572 0.404m12.14 2.991l-0.143 0.97 0.785-0.162 0.571-0.565-0.5-0.485c-0.167-0.447-0.36-0.865-0.57-1.293h-0.428v0.484l0.285 0.323v0.728m-0.285 0.163l-0.286-0.729-0.501 0.163 0.144 0.888 0.643-0.322" style="fill-rule:nonzero;fill:url(#_Linear2)"/>
  </g>
  <g transform="matrix(9.5259,0,0,9.5259,-550.726,220.397)">
   <path d="m35.875 3.603c1.257-0.57 2.781-0.975 4.218-0.962 1.634 0.049 3.286 0.696 4.104 2.131 2.052 3.602-0.525 7.784-2.314 10.837-6.234 10.641-15.911 19.608-26.674 24.945-4.168 2.067-9.788 4.06-12.006 0.169-1.198-2.103-0.818-4.403 0.061-6.561l1.916 2.786c-9e-3 0.047-0.051 0.414-0.124 1-0.406 3.27 6.643 2.058 12.285-1.386 10.769-6.575 21.379-15.685 24.753-27.459 0.819-2.857-0.606-4.023-2.28-4.004-0.428 0.014-0.852 0.049-1.275 0.105l-2.664-1.601z" style="fill-rule:nonzero;fill:white"/>
  </g>
 </g>
 <defs>
  <linearGradient id="_Linear1" x2="1" gradientTransform="matrix(-3.95015,-413.58,413.58,-3.95015,-321.182,656.028)" gradientUnits="userSpaceOnUse">
   <stop style="stop-color:rgb(25,125,236)" offset="0"/>
   <stop style="stop-color:rgb(63,207,251)" offset="1"/>
  </linearGradient>
  <linearGradient id="_Linear2" x2="1" gradientTransform="matrix(-.156992 37.896 -37.896 -.156992 22.9287 4.33259)" gradientUnits="userSpaceOnUse">
   <stop style="stop-color:rgb(190,225,255)" offset="0"/>
   <stop style="stop-color:rgb(119,187,255)" offset="1"/>
  </linearGradient>
 </defs>
</svg>

<?xml version="1.0" encoding="UTF-8" standalone="no"?>
<!DOCTYPE svg PUBLIC "-//W3C//DTD SVG 1.1//EN" "http://www.w3.org/Graphics/SVG/1.1/DTD/svg11.dtd">
<svg width="100%" height="100%" viewBox="0 0 48 48" version="1.1" xmlns="http://www.w3.org/2000/svg" xmlns:xlink="http://www.w3.org/1999/xlink" xml:space="preserve" xmlns:serif="http://www.serif.com/" style="fill-rule:evenodd;clip-rule:evenodd;stroke-linejoin:round;stroke-miterlimit:1.41421;">
    <g transform="matrix(0.104977,0,0,0.104977,57.8136,-23.1366)">
        <circle cx="-322.323" cy="449.237" r="209.757" style="fill:url(#_Linear1);"/>
        <g transform="matrix(9.96133,0,0,9.96133,-566.068,216.605)">
            <path d="M18.317,14.439L18.746,13.792L18.103,13.308L18.317,14.439M14.533,8.781L14.175,9.67L14.89,9.67L15.247,8.862C15.555,8.644 15.862,8.425 16.175,8.215L16.89,8.458C17.365,8.781 17.841,9.104 18.317,9.427L19.032,8.781L18.246,8.458L17.889,7.73L16.532,7.568L16.461,7.164L15.818,7.326L15.532,7.892L15.175,7.164L15.033,7.488L15.104,8.296L14.533,8.781M17.96,27.775L17.389,26.643L16.318,26.401L15.746,24.866L14.318,25.027L13.105,24.139L11.819,25.27L11.819,25.448C11.43,25.336 10.952,25.321 10.605,25.108L10.319,24.3L10.319,23.411L9.463,23.491C9.534,22.925 9.605,22.36 9.677,21.794L9.177,21.794L8.677,22.441L8.177,22.682L7.463,22.28L7.391,21.39L7.534,20.42L8.606,19.612L9.462,19.612L9.605,19.127L10.676,19.369L11.462,20.34L11.605,18.722L12.962,17.591L13.461,16.379L14.461,15.975L15.032,15.167L16.317,14.923L16.961,13.954L15.032,13.954L16.246,13.388L17.103,13.388L18.317,12.983L18.46,12.5L18.031,12.095L17.531,11.933L17.674,11.448L17.317,10.721L16.46,11.044L16.603,10.398L15.603,9.832L14.818,11.205L14.889,11.69L14.104,12.014L13.604,13.065L13.39,12.095L12.033,11.529L11.818,10.802L13.604,9.75L14.389,9.023L14.461,8.134L14.033,7.892L13.461,7.811L13.105,8.7C13.105,8.7 12.507,8.817 12.354,8.855C10.393,10.662 6.431,14.563 5.51,21.926C5.547,22.097 6.177,23.087 6.177,23.087L7.677,23.976L9.176,24.38L9.82,25.189L10.819,25.916L11.39,25.836L11.819,26.029L11.819,26.159L11.248,27.694L10.819,28.341L10.962,28.665L10.605,29.876L11.89,32.221L13.175,33.353L13.747,34.16L13.675,35.858L14.104,36.827L13.675,38.687C13.675,38.687 13.642,38.675 13.696,38.861C13.752,39.047 15.984,40.287 16.126,40.181C16.268,40.074 16.389,39.98 16.389,39.98L16.246,39.577L16.817,39.011L17.032,38.445L17.96,38.12L18.674,36.342L18.46,35.858L18.959,35.131L20.031,34.888L20.602,33.594L20.459,31.979L21.316,30.766L21.459,29.554C20.287,28.972 19.124,28.374 17.96,27.775M26.315,5.791L24.458,5.063L22.317,5.305L19.674,6.033L19.174,6.518L20.817,7.649L20.817,8.296L20.174,8.942L21.031,10.641L21.601,10.317L22.317,9.185C23.42,8.844 24.409,8.458 25.458,7.973L26.315,5.791M25.53,9.104L25.458,9.589L25.959,9.912L26.814,9.347L26.387,8.862L25.815,9.186L25.53,9.105M43.213,20.38L42.678,20.987C42.35,20.601 41.982,20.276 41.608,19.936L40.786,20.057L40.036,19.209L40.036,20.258L40.679,20.744L41.107,21.228L41.678,20.582C41.822,20.851 41.964,21.121 42.107,21.39L42.107,22.198L41.464,22.925L40.285,23.734L39.393,24.624L38.822,23.976L39.107,23.249L38.537,22.603L37.572,20.542L36.751,19.613L36.536,19.854L36.859,21.027L37.465,21.714C37.811,22.713 38.154,23.67 38.609,24.624C39.314,24.624 39.978,24.549 40.679,24.461L40.679,25.027L39.822,27.129L39.036,28.017L38.394,29.394L38.394,31.656L38.609,32.545L38.252,32.948L37.465,33.434L36.644,34.12L37.323,34.888L36.394,35.698L36.573,36.222L35.18,37.8L34.252,37.8L33.466,38.285L32.966,38.285L32.966,37.638L32.753,36.343C32.476,35.532 32.189,34.726 31.896,33.92C31.896,33.325 31.931,32.736 31.967,32.141L32.325,31.334L31.824,30.363L31.86,29.029L31.181,28.262L31.521,27.151L30.968,26.524L30.003,26.524L29.682,26.16L28.718,26.767L28.325,26.321L27.432,27.089C26.826,26.402 26.219,25.715 25.611,25.028L24.898,23.33L25.54,22.361L25.183,21.957L25.968,20.097C26.613,19.295 27.286,18.526 27.968,17.754L29.182,17.43L30.539,17.269L31.467,17.511L32.788,18.844L33.253,18.319L33.894,18.238L35.109,18.642L36.037,18.642L36.68,18.077L36.966,17.673L36.322,17.269L35.251,17.189C34.953,16.776 34.677,16.342 34.324,15.976L33.966,16.137L33.823,17.189L33.18,16.461L33.039,15.652L32.325,15.088L32.038,15.088L32.753,15.895L32.467,16.623L31.896,16.784L32.253,16.057L31.609,15.734L31.039,15.088L29.967,15.329L29.825,15.652L29.182,16.057L28.825,16.946L27.933,17.39L27.539,16.946L27.112,16.946L27.112,15.491L28.04,15.005L28.754,15.005L28.61,14.44L28.04,13.874L29.003,13.672L29.539,13.066L29.967,12.338L30.753,12.338L30.538,11.773L31.039,11.45L31.039,12.096L32.11,12.338L33.18,11.45L33.252,11.045L34.18,10.399C33.844,10.441 33.508,10.471 33.18,10.561L33.18,9.832L33.537,9.024L33.18,9.024L32.396,9.751L32.181,10.156L32.396,10.722L32.038,11.691L31.467,11.368L30.968,10.803L30.182,11.368L29.896,10.075L31.252,9.186L31.252,8.701L32.11,8.135L33.466,7.811L34.395,8.135L36.108,8.458L35.681,8.943L34.752,8.943L35.681,9.913L36.394,9.105L36.611,8.749C36.611,8.749 39.349,11.204 40.914,13.888C42.479,16.573 43.213,19.738 43.213,20.381L43.213,20.38ZM17.103,6.76L17.46,6.438L18.175,6.276C18.664,6.038 19.155,5.878 19.674,5.71L19.389,5.225L18.467,5.357L18.032,5.791L17.313,5.896L16.675,6.195L16.365,6.346L16.175,6.599L17.103,6.76M16.389,9.428L17.103,9.913L17.675,9.913L17.675,9.347L16.961,9.024L16.389,9.428M28.529,12.419L28.386,13.389L29.171,13.227L29.742,12.662L29.242,12.177C29.075,11.73 28.882,11.312 28.672,10.884L28.244,10.884L28.244,11.368L28.529,11.691L28.529,12.419M28.244,12.582L27.958,11.853L27.457,12.016L27.601,12.904L28.244,12.582" style="fill:url(#_Linear2);fill-rule:nonzero;"/>
        </g>
        <g transform="matrix(9.5259,0,0,9.5259,-550.726,220.397)">
            <path d="M35.875,3.603C37.132,3.033 38.656,2.628 40.093,2.641C41.727,2.69 43.379,3.337 44.197,4.772C46.249,8.374 43.672,12.556 41.883,15.609C35.649,26.25 25.972,35.217 15.209,40.554C11.041,42.621 5.421,44.614 3.203,40.723C2.005,38.62 2.385,36.32 3.264,34.162L5.18,36.948C5.171,36.995 5.129,37.362 5.056,37.948C4.65,41.218 11.699,40.006 17.341,36.562C28.11,29.987 38.72,20.877 42.094,9.103C42.913,6.246 41.488,5.08 39.814,5.099C39.386,5.113 38.962,5.148 38.539,5.204L35.875,3.603Z" style="fill:white;fill-rule:nonzero;"/>
        </g>
    </g>
    <defs>
        <linearGradient id="_Linear1" x1="0" y1="0" x2="1" y2="0" gradientUnits="userSpaceOnUse" gradientTransform="matrix(-3.95015,-413.58,413.58,-3.95015,-321.182,656.028)"><stop offset="0" style="stop-color:rgb(25,125,236);stop-opacity:1"/><stop offset="1" style="stop-color:rgb(63,207,251);stop-opacity:1"/></linearGradient>
        <linearGradient id="_Linear2" x1="0" y1="0" x2="1" y2="0" gradientUnits="userSpaceOnUse" gradientTransform="matrix(-0.156992,37.896,-37.896,-0.156992,22.9287,4.33259)"><stop offset="0" style="stop-color:rgb(190,225,255);stop-opacity:1"/><stop offset="1" style="stop-color:rgb(119,187,255);stop-opacity:1"/></linearGradient>
    </defs>
</svg>
